2 Export/Icons/Rounded/Lock Open.svg

<svg xmlns="http://www.w3.org/2000/svg" xmlns:xlink="http://www.w3.org/1999/xlink" width="24" height="24" viewBox="0 0 24 24">
  <defs>
    <path id="lock-open-a" d="M12 13c-1.1 0-2 .9-2 2s.9 2 2 2 2-.9 2-2-.9-2-2-2zm6-5h-1V6c0-2.76-2.24-5-5-5-2.28 0-4.27 1.54-4.84 3.75-.14.54.18 1.08.72 1.22a1 1 0 0 0 1.22-.72A2.996 2.996 0 0 1 12 3c1.65 0 3 1.35 3 3v2H6c-1.1 0-2 .9-2 2v10c0 1.1.9 2 2 2h12c1.1 0 2-.9 2-2V10c0-1.1-.9-2-2-2zm0 11c0 .55-.45 1-1 1H7c-.55 0-1-.45-1-1v-8c0-.55.45-1 1-1h10c.55 0 1 .45 1 1v8z"/>
  </defs>
  <g fill="none" fill-rule="evenodd">
    <polygon points="0 0 24 0 24 24 0 24"/>
    <mask id="lock-open-b" fill="#fff">
      <use xlink:href="#lock-open-a"/>
    </mask>
    <use fill="#000" xlink:href="#lock-open-a"/>
    <g fill="#000" mask="url(#lock-open-b)">
      <rect width="24" height="24"/>
    </g>
  </g>
</svg>

<svg xmlns="http://www.w3.org/2000/svg" xmlns:xlink="http://www.w3.org/1999/xlink" width="24" height="24" viewBox="0 0 24 24">
  <defs>
    <path id="lock-open-a" d="M12,13 C10.9,13 10,13.9 10,15 C10,16.1 10.9,17 12,17 C13.1,17 14,16.1 14,15 C14,13.9 13.1,13 12,13 Z M18,8 L17,8 L17,6 C17,3.24 14.76,1 12,1 C9.72,1 7.73,2.54 7.16,4.75 C7.02,5.29 7.34,5.83 7.88,5.97 C8.41,6.11 8.96,5.79 9.1,5.25 C9.44,3.93 10.63,3 12,3 C13.65,3 15,4.35 15,6 L15,8 L6,8 C4.9,8 4,8.9 4,10 L4,20 C4,21.1 4.9,22 6,22 L18,22 C19.1,22 20,21.1 20,20 L20,10 C20,8.9 19.1,8 18,8 Z M18,19 C18,19.55 17.55,20 17,20 L7,20 C6.45,20 6,19.55 6,19 L6,11 C6,10.45 6.45,10 7,10 L17,10 C17.55,10 18,10.45 18,11 L18,19 Z"/>
  </defs>
  <g fill="none" fill-rule="evenodd">
    <polygon points="0 0 24 0 24 24 0 24"/>
    <mask id="lock-open-b" fill="#fff">
      <use xlink:href="#lock-open-a"/>
    </mask>
    <use fill="#000" xlink:href="#lock-open-a"/>
    <g fill="#000" mask="url(#lock-open-b)">
      <rect width="24" height="24"/>
    </g>
  </g>
</svg>
